X:170
T:Kennaw's Reel
B:Terry "Cuz" Teahan "Sliabh Luachra on Parade" 1980
Z:Patrick Cavanagh
M:4/4
L:1/8
R:Reel
K:G
B/c/d | eBBA G2GA | B2Ac BE E/D/E | G2GE DEGA | BAdB A2A/B/d | 
eBBA G2GA | B/c/d Ac BE E/D/E | GAGE DEGA | dBAc BG :| G
|: d | e2ef edBd | g2gf edBc | d2df edef | gfaf g2fg | 
edef edBd | gfgf edBc | dcdf edef | gfaf g3 :|| 

